X: 200
T:Coddywatch
C:Damien helliwell
S:CD, Tuneship by Daibh
Z:https://nigelgatherer.com/
M:4/4
L:1/8
K:Bm
Be e/e/e ge az | A3 B edBA | Be e/e/e geag- | geed BeeA |
Be e/e/e ge az | A3 B edBA | eB B/B/B dedB | AAGA BeeA :|
fgge- egfg | fede- edBA | eB B/B/B dedB | AAGA BeeA |
fgge- egfg | fede- edBA | Be e/e/e geag- | geed Bee A :|

